X:1
T:When Israel Out of Bondage Came
T:When Israel Out of Bondage Came
T:Henry Lake Gilmour
T:Henry Jeffreys Zelley, 1896
T:Public Domain Courtesy of the Cyber Hymnal™
C:Henry Lake Gilmour
Z:Public Domain
Z:Courtesy of the Cyber Hymnal™
%%score ( 1 2 ) 3
L:1/8
Q:1/4=110
M:4/4
K:Eb
V:1 treble 
V:2 treble 
V:3 bass 
V:1
 ([EG][FA]) | [GB]2 [Ac]2 [GB]2 [EG]2 | [EB]2 [EB]2 E2 [DF]2 | [EG]3 [EB] [EB]2 [EG]2 | %4
w: 1.~When *|Is- rael out of|bond- age came, A|sea be- fore them|
w: 2.~Be- *|fore me was a|sea of sin, So|great I feared to|
w: 3.~When *|sor- rows dark, like|storm- y waves, Were|dash- ing o’er my|
w: 4.~And *|when I reach the|sea of death, For|need- ed grace I’ll|
 [DF]6 ([EG][FA]) | [GB]2 [Ac]2 [GB]2 [EG]2 | [EB]2 [EB]2 E2 [EF]2 | [EG]3 E [DF]2 [DF]2 | %8
w: lay; My *|Lord reached down His|might- y hand, And|rolled the sea a-|
w: pray; My *|heart’s de- sire the|Sav- ior read, And|rolled the sea a-|
w: way, A- *|gain the Lord in|mer- cy came, And|rolled the sea a-|
w: pray; I *|know the Lord will|quick- ly come, And|roll the sea a-|
 [B,E]6 ||"^Refrain" [EB]2 | [Ee]2 [Ee]2 [Ee]2 [Fd][Fc] | [FB]2 [EG]2 [DB]2 [DB]>[DB] | %12
w: way.||||
w: way.||||
w: way.||||
w: way.||||
 [Ec]2 [Ee]2 [Fd]2 [Fc]2 | [Fd]6 [Ec]>[DB] | [Ee]2 [Ee]2 [EB]2 [Ec][EB] | [EG]2 [EB]2 E2 [EF]2 | %16
w: ||||
w: ||||
w: ||||
w: ||||
 [EG]3 E [DF]2 [DF]2 | [B,E]6 |] %18
w: ||
w: ||
w: ||
w: ||
V:2
 x2 | x8 | x4 E2 x2 | x8 | x8 | x8 | x4 E2 x2 | x3 E x4 | x6 || x2 | x8 | x8 | x8 | x8 | x8 | %15
 x4 E2 x2 | x3 E x4 | x6 |] %18
V:3
 [E,B,]2 | [E,E]2 [E,E]2 [E,E]2 [E,B,]2 | [E,G,]2 [E,G,]2 [E,G,]2 [B,,B,]2 | %3
w: ~|~ ~ ~ ~|~ ~ ~ ~|
 [E,B,]3 [E,G,] [E,G,]2 [E,B,]2 | [B,,B,]6 [E,B,]2 | [E,E]2 [E,E]2 [E,E]2 [E,B,]2 | %6
w: ~ ~ ~ ~|~ ~|~ ~ ~ ~|
 [E,G,]2 [E,G,]2 [E,G,]2 [C,=A,]2 | [B,,B,]3 [B,,G,] [B,,A,]2 [B,,A,]2 | [E,G,]6 || [E,G,]2 | %10
w: ~ ~ ~ ~|~ ~ ~ ~|~|Then|
 [E,G,]2 [F,A,]2 [G,B,]2 [F,B,][E,=A,] | [D,B,]2 [E,B,]2 [B,,B,]2 [B,,F,]>[B,,B,] | %12
w: for- ward still— ’tis Je-|ho- vah’s will, Though the|
 [F,=A,]2 [F,A,]2 [F,B,]2 [F,A,]2 | [B,,B,]6 [A,B,]>[A,B,] | [G,B,]2 [G,B,]2 [E,G,]2 [E,A,][E,G,] | %15
w: bil- lows dash and|spray. With a|con- quering tread we will|
 [E,B,]2 [E,G,]2 [E,G,]2 [C,=A,]2 | [B,,B,]3 [B,,G,] [B,,A,]2 [B,,A,]2 | [E,G,]6 |] %18
w: push a- head; He’ll|roll the sea a-|way.|

